X:1
T:Prophetarum maxime
T:Heinrich Isaac, ed. R. Bolyard MSS Magliabechi 164-167, no. LXVI
T:Prophetarum maxime
C:Heinrich Isaac, ed. R. Bolyard
C:MSS Magliabechi 164-167, no. LXVI
%%score [ 1 2 3 4 ]
L:1/8
M:2/2
K:C
V:1 treble nm="Soprano" snm="S."
V:2 treble nm="Alto" snm="A."
V:3 treble-8 transpose=-12 nm="Tenor" snm="T."
V:4 bass nm="Bass" snm="B."
V:1
 z8 | G6 G2 | G4 G4 | c4 c4 | A8 | z8 | A4 A2 A2 | G4 G2 G2 | A4 G4 | F8 | z4 A4 | A4 A2 A2 | %12
w: |Pro- phe-|ta- rum|ma- xi-|me||va- tum- que|prin- ceps e-|gre- gi-|e|qui|ma- tris in|
 A2 A2 A4 | B3 A B2 A2- |"^* MSSM 167: Fs in this measure, MOB Bb" A2 G4 F2 | G2 E2 D4 | C4 z4 | %17
w: u- te- ro|ma- * * *|||nens|
 z8 | z8 | z2 G4 G2 | B3 A B3 c | d2 d2 d4 | z8 | z8 | d3 d d2 d2 | e4 e4 | d4 c2 d2 | G2 c4 B2 | %28
w: ||fle- xis|gen- * * *|* i bus|||re- demp- to- rem|sa- lu-|ta- * *||
 c8 | z8 | z8 | c4 c4 | c2 BA c2 B2- | BA A4 G2 | A4 z2 A2 | A4 A4 | A4 A4 | B6 B2 | B4 c2 A2- | %39
w: sti|||et quo|na- to _ pa- ter-|* ne vo- *|cis pa-|ter- ne|vo- cis|or- ga-|na per- emp-|
 A2 G4 F2 | G8- | G8 | z8 | z8 | z8 | B4 B2 B2 | B4 B4 | A3 G A2 B2 | c2 A4 G2 | A8- | A8 | z8 | %52
w: |ta.|_||||No- vum sol-|vun- tur|in _ _ _|can- * ti-|cum|_||
 z8 | z4 B4 | c8 | d3 c d2 e2- | e2 d4 c2 | d8 | z8 | d3 d d2 d2 | e4 e4 | f8 | e8 | z8 | z8 | %65
w: |lu-|ce-|que _ _ fru-||ens||di- gi- to ter-|ra- rum|or-|bis|||
 c6 A2 | B4 c4 | d3 c B2 A2- | A2 G2 G2 F2 | G4 z2 G2 | c3 d ed e2- | edcB A3 B | cA d4 c2 | %73
w: de- mon-|stra- sti|sa- * * lu-|* tem di- *|cens: Ec-|ce _ _ _ a-||gnus _ De- *|
 d4 z2 d2 | Bcdc dcBA | G4 E3 F | GE A4 G2 | A4 z2 c2 | d4 e4 | d2 f4 ed | c3 B A2 c2 | G4 z2 G2 | %82
w: i ec-|ce _ _ _ qui _ _ _|tol- lit _|cri- * * mi-|na, cri-|mi- *|na mun- * *||di, cri-|
 A4 B4 | A2 c3 B A2- | A2 GF G4 | F2 A3 GFE | D4 E2 G2- | G2 FE F4 | G8 || z8 | G8 | B6 c2 | d8 | %93
w: mi- *|na mun- * *||di, cri- mi- * *|* na mun-||di.||Con-|ce- de|no-|
 d4 z4 | z8 | z4 D4 | F6 G2 | A8 | A4 z2 A2 | c2- cB cd e2 | A2 d4 c2 | d8 | z8 | d4 c4 | B4 B4 | %105
w: bis||Con-|ce- de|no-|bis Con-|ce- * * * * de|no- * *|bis||tu- as|dig- ne|
 c4 c4 | d3 c BA B2 | G2 c4 B2 | c8 | z4 c4 | c4 c4 | c4 c2 c2 | d4 d4 | z2 c4 c2 | d4 e4 | %115
w: con- ci-|ne- * * * re|lau- * *|des|vi-|as- que|tu- as et|vo- cem|in de-|ser- to|
 f2 e4 dc | B2 c4 B2 | c8 | B8 | z8 | G6 G2 | G2 G2 E2 E2 | G4 A4 | G2 G4 F2 | G8 | c4 B4 | %126
w: cla- man- * *|||tem||nos- tra|mo- du- la- ti-|o- ne|pro- se- *|qui.|Per _|
 G4 A2 B2- | BAGF E2 G2 | F3 G/A/ _B2 A2- | AG G4 F2 | G4 z4 | G4 E3 F | G2 A4 GF | GFED E4 | D8 | %135
w: e- um cu-|* jus _ _ tu su-|per- * * * *||is|in- fer- *||* * * * is-|que|
 z4 G4 | G8 | A8 | z4 z2 A2- | A2 D2 E2 G2 | F2 A3 GFE | FD G4 ^F2 | G6 E2 | E8 | z8 | z8 | z8 | %147
w: fu-|i-|sti|præ-||cur- * * * *|||sor.||||
 z8 | z8 | z8 | z8 | z8 | z8 | z8 | z8 | z8 | z8 | z8 ||[M:3/2] z8 G4 | G8 A4 | c8 c4 | A6 B2 c4 | %162
w: |||||||||||E-|li- sa-|beth Za-|cha- * ri-|
 B8 z4 | G8 G4 | A8 A4 | B6 G2 A2 B2 | G8 F4 | G8 G4 | c8 B4 | G4 A8 | E8 z4 | G8 G4 | G8 F4 | %173
w: e|mag- num|vi- rum|ge- * nu- *|it Jo-|han- nem|Bap- *|tis- *|tam|præ- cur-|so- rem|
 E8 D4 | E12 ||[M:2/2] z8 | z8 | e4 d4 | c3 B c2 A2- | A2 d4 c2 | d8 | z8 | z8 | z2 A2 B2 c2 | %184
w: Do- mi-|ni.|||In- ter|na- tos mu- li-|* * e-|rum|||mu- * li-|
 G4 A4 | GABc d2 e2- | ed d4 c2 | d2 f4 ed | c8 | z8 | z8 | z2 d2 d4 | d3 c B2 A2- | A2 G4 F2 | %194
w: e- *||||rum|||non sur-|re- * xit ma-||
 G4 z2 c2- | c2 BA B4 | ABcd c2 BA | G2 A4 G2 | A2 c4 B2 | A4 z4 | z2 A3 F G2 | F2 D2 E4 | %202
w: ior ma-|||||ior|Jo- * *|* * han-|
 D2 d2 cBAG | F2 D2 G4- | G2 FE F4 | G4 z2 G2 | A2 B2 c4 | B2 d2 B2 AG | F2 G4 F2 | GABc B2 A2- | %210
w: ne Bap- * * * *|* * tis-||ta Jo-|han- * *|ne Bap- tis- * *||ta _ _ _ _ A-|
 A2 G4 F2 | G8 | F8 | G8- | G8 |] %215
w: |||men|_|
V:2
 z8 | z8 | z8 | C6 C2 | C4 C4 | F4 F4 | D2 F2 F2 F2 | D4 D2 E2- | ED D4 C2 | D8- | D4 z2 C2 | %11
w: |||Pro- phe-|ta- rum|ma- xi-|me va- tum- que|prin- ceps e-|* * gre- gi-|e|_ qui|
 F4 F2 F2 | E2 E2 F4 | G4 F3 E | D2 C2 D4 | z8 | z2 C4 C2 | E3 D E3 F | G6 G2 | G4 z4 | z8 | %21
w: ma- tris in|u- te- ro|ma- * *|* * nens||fle- xis|gen- * * *|* i-|bus||
 D3 D D2 D2 | E4 E4 | D4 C2 D2 | G,2 C4 B,2 | C4 CDEC | G4 A2 G2- | G2 FE D2 G,2 | G,4 G4 | z8 | %30
w: re- demp- to- rem|sa- lu-|ta- * *||sti sa- * * *|* lu- ta-||sti _||
 z8 | z2 G4 G2 | G3 F ED F2- | F2 E4 D2 | E8- | E4 z2 E2 | F2 F2 F2 F2 | G6 G2 | G4 G2 F2- | %39
w: |et quo|na- * * * *||to|_ pa-|ter- ne vo- cis|or- ga-|na per- emp-|
 FEDC D4 | B,3 G, G,4 | z8 | z2 G2 G2 G2 | G4 F2 A2- | A2 G4 F2 | G8 | z8 | z2 CD EF G2 | %48
w: |* * ta.||No- vum sol-|vun- tur in|_ can- ti-|cum||in _ _ _ _|
 C2 D2 E4 | z4 E4 | F8 | G3 F G2 A2- | A2 G4 F2 | E2 D2 G4 | z4 z2 A2- | AGFE F2 G2 | D4 E4 | %57
w: can- ti- cum|lu-|ce-|que _ _ fru-||* * ens|di-|* * * * * gi-|to _|
 D3 C/B,/ A,2 B,2 | G,2 G2- GF E2 | D2 C4 B,2 | C4 z4 | z8 | G6 E2 | F4 G4 | A3 G F2 E2- | %65
w: ter- * * ra- rum|or- * * * *||bis||de- mon-|stra- sti|sa- * * lu-|
 EDCB, C4 | D4 z4 | z2 F2 G2 FE | D2 E2 D4 | z4 G4- | G4 E4 | G4 F4 | E8 | D8 | z8 | z8 | z8 | E8 | %78
w: |tem|di- cens: _ _|_ _ _|Ec-|* ce|ag- nus|De-|i||||qui|
 D4 C4 | D8 | E8- | E8- | E8- | E8 | z2 E2 E2 E2 | C4 A,4 | B,2 D4 C2 | D8- | D8 || G,8 | B,6 C2 | %91
w: tol- *||lit|_|||cri- mi- na|mun- *||di.|_|Con-|ce- de|
 D8 | D4 z4 | z4 D4 | F6 G2 | A8 | A4 z4 | z8 | z4 A4- | A4 G4 | A4 A4 | z2 D3 EFG | A3 G FE F2 | %103
w: no-|bis|Con-|ce- de|no-|bis||tu-|* as|dig- ne|con- ci- * *|ne- * * * re|
 D2 G4 F2 | G8- | G8 | z8 | z8 | G4 G2 G2 | G4 G2 G2 | G4 G4 | z2 C2 CDEF | G2 A4 G2 | A8 | %114
w: no- * *|bis|_|||vi- as- que|tu- as et|vo- cem|in de- * * *|ser- * *|to|
 G3 F ED A2- | A2 G4 F2 | G8 | z8 | D6 D2 | D2 D2 B,2 B,2 | D4 E4 | D2 D4 C2 | D4 z2 A,2 | %123
w: cla- * * * man-||tem||nos- tra|mo- du- la- ti-|o- ne|pro- se- *|qui, pro-|
 B,2 C2 D4 | B,4 z4 | z8 | E4 D4 | B,4 C4 | D4 D2 C2- | CB,A,G, A,2 A,2 | G,8 | z8 | z8 | z8 | %134
w: se- * *|qui.||Per _|e- um|cu- jus tu-|* * * * sup- er-|is||||
 D4 B,3 C | D2 E4 DC | DCB,A, B,4 | A,4 z2 D2 | C2 E2- EDCB, | CA, D4 C2 | D8 | z8 | z8 | G6 G2 | %144
w: in- fer- *||* * * * is-|que fu-|i- sti _ _ _ _|præ- * * cur-|sor.|||Po- su-|
 G4 E4 | G4 A4 | G2 G4 F2 | G4 z4 | A4 G4 | E4 F4 | G3 F E2 D2- | DC C4 B,2 | C8 | z2 C2 F2 F2 | %154
w: it os|me- *|um Do- mi|nus|qua- si|gla- di-|um _ _ a-|* * cu- *|tum,|sub um- bra|
 F2 D2 F4 | E4 z2 C2 | DEFG E2 D2- | D2 C4 B,2 ||[M:3/2] C8 E4 | E8 E4 | E8 E4 | F8 F4 | G8 z4 | %163
w: ma- nus su-|æ su-|* * * * æ pro-|* te- xit|me. E-|li- sa-|beth Za-|cha- ri-|e|
 D8 E4 | F8 F4 | G6 E2 F4 | E4 D8 | D8 G4 | E4 C4 D4 | E4 C8 | C8 z4 | D8 D4 | E6 C2 D4 | %173
w: mag- num|vi- rum|ge- * nu-|it Jo-|han- nem|Bap- * *|tis- *|tam|præ- cur-|so- * rem|
 G,6 A,2 B,4 | G,12 ||[M:2/2] G4 F4 | E3 F G2 E2- | E2 A4 G2 | A8- | A8- | A8 | z8 | z8 | %183
w: Do- * mi-|ni.|In- ter|na- tos mu- li-|* * e-|rum|_||||
 F4 G2 A2- | AG G4 F2 | G4 D2 G2 | A2 F2 E4 | D4 z4 | z2 A4 A2 | A3 G F2 E2- | ED D4 C2 | %191
w: mu- li- e-||* * *||rum|non sur-|re- * xit ma-||
 D2 A2 A4 | A3 G F2 E2 | D4 D4 | z8 | z2 G2 G3 F | E2 A,2 C2 D2 | E8 | z2 G3 E F2 | E2 C2 D3 B, | %200
w: * * ior|ma- * * *|* ior||Jo- han- *|ne Bap- tis- *|ta|Jo- * *|* * han- *|
 C2 D2 G,4 | A,4 z4 | z2 G3 F E2 | D4 B,2 C2 | D4 z2 D2 | G,A,B,C D2 E2 | FE G4 F2 | G2 D2 E4 | %208
w: ne Bap- tis-|ta|Jo- * *|han- * *|ne Jo-|han- * * * * *||ne Bap- tis-|
 D2 C2 D4 | z2 D2 E4 | D2 C2 D4 | B,4 C4 | D8- | D8- | D8 |] %215
w: * * ta|A- *|* * men|A- *|men|_||
V:3
 G6 G2 | G4 G4 | c6 d2 | e2 f4 e2 | f8 | z8 | z2 c2 c2 c2 | B4 B2 B2 | A2 F2 G4 | A8 | z4 A4 | %11
w: Pro- phe-|ta- rum|ma- *|* * xi-|me||va- tum- que|prin- ceps e-|gre- * gi-|e|qui|
 c4 c2 c2 | c2 c2 c4 | d6 c2 | B2 G2 A4 | G2 c4 B2 | e6 dc | c4 z4 | z2 G4 G2 | B3 A B3 c | %20
w: ma- tris in|u- te- ro|ma- *||||nens|fle- xis|gen- * * *|
 d2 d2 d4 | B3 B B2 B2 | c4 c4 | B4 A2 B2- | B2 AG F4 | G8 | z8 | d3 d d2 d2 | e4 e4 | d4 c2 d2 | %30
w: * i- bus|re- demp- to- rem|sa- lu-|ta- * *||sti||re- demp- to- rem|sa- lu-|tas- * *|
 e2 c4 B2 | c4 z2 e2 | e6 d2 | c2 A2 B4 | A4 c4 | c4 c4 | d4 d4 | z2 d4 d2 | d4 e2 c2- | cB G2 A4 | %40
w: |sti et|quo _|na- * *|to pa-|ter- ne|vo- cis|or- ga-|na per- emp-||
 G4 z4 | e4 e2 e2 | e4 e4 | d3 c d2 e2- | e2 d4 c2 | d4 z2 d2 | e2 d3 c d2 | e4 c2 d2 | A4 B4 | %49
w: ta.|No- vum sol-|vun- tur|in _ _ can-|* * ti-|cum lu-|ce- * * que|fru- * *||
 A4 c4 | d8 | B3 A B2 c2 | G4 A4 | G4 d4 | e8 | d3 e d2 c2 | B4 A4 | d3 d d2 d2 | e4 e4 | f8 | %60
w: ens lu-|ce-|que _ _ fru-||ens lu-|ce-|que _ _ fru-|* ens|di- gi- to ter-|ra- rum|or-|
 e4 c4 | d8 | c4 z2 g2 | f4 d4 | e4 c3 d | ef g4 f2 | g4 e4 | d4 G2 A2 | B2 c2 A4 | G2 c4 B2 | c8 | %71
w: ||bis de-|mon- *|stra- * *||sti _|di- * *|* * cens:|di- * *|cens:|
 z8 | z8 | z4 d4- | d4 B4 | d4 c4 | B8 | A8- | A8- | A8 | z8 | B8 | A4 G4 | A8 | B4 G4 | %85
w: ||Ec-|* ce|a- gnus|De-|i|_|||Ec-|ce qui|tol-|* lit|
 A3 B c2 d2 | B4 G4 | A8 | G8 || z8 | z8 | G8 | B6 c2 | d8 | d4 z4 | z8 | z8 | z4 A4 | c6 d2 | e8 | %100
w: cru- * * *|mi- na|mu-|di.|||Con-|ce- de|no-|bis|||con-|ce- de|no-|
 c2 d2 e4 | d4 z4 | z8 | z8 | d4 d4 | e4 e4 | d6 g2 | e2 dc d4 | c4 z4 | e4 e2 e2 | e4 e2 e2 | %111
w: |bis|||tu- as|dig- ne|con- ci-|ne- re _ lau-|des|vi- as- que|tu- as et|
 e4 e4 | d2 d2 d4 | e4 f4 | d4 c4 | z2 c2 e2 f2 | d2 c2 d4 | c8 | z8 | B6 B2 | B2 B2 c2 c2 | %121
w: vo- cem|in de- ser-|to cla-|man- tem|de- ser- to|cla- * man-|tem||nos- tra|mo- du- la- ti-|
 B4 A4 | B2 d3 B c2 | B2 G2 A4 | G8 | z8 | z8 | z4 G4 | A4 D2 F2- | F2 G2 D4 | d4 z4 | c4 c4 | %132
w: o- ne|pro- se- * *||qui.|||cu-|jus tu- *|* su- per-|is|in- fer-|
 c4 A2 A2 | c8 | B8- | B8 | z8 | z8 | z8 | z4 G4 | A3 G A2 B2- | B2 AG A4 | G8 | c8 | z8 | z8 | %146
w: is- que fu-|i-|sti|_||||præ-|cur- * * *||sor.|_|||
 z8 | z8 | z8 | z8 | z8 | z8 | z8 | z8 | z8 | z8 | z8 | z8 ||[M:3/2] z8 c4 | c8 c4 | c8 c4 | %161
w: ||||||||||||E-|li- sa-|beth Za-|
 c8 c4 | d8 z4 | B8 B4 | c8 c4 | d6 B2 c4 | G4 A8 | G8 B4 | c4 A4 B4 | c4 A8 | G8 z4 | B8 B4 | %172
w: cha- ri-|e|mag- num|vi- rum|ge- * nu-|it Jo-|han- nem|Bap- * *|tis- *|tam|præ- cur-|
 G6 A2 B2 A2 | c8 B4 | c12 ||[M:2/2] z8 | z8 | c4 d4 | f4 e2 f2- | f2 ed e4 | d8 | c4 d2 e2- | %182
w: so- * rem *|Do- mi-|ni.|||In- ter-|na- tos mu-|* li- * e-|||
 ed d4 c2 | d4 z4 | z4 d4 | G2 d2 B2 G2 | c2 d2 A4 | z2 d4 d2 | e4 e4 | e3 d c2 B2- | BA A4 G2 | %191
w: |rum|non|sur- rex- * it|ma- * ior|non sur-|re- xit|ma- * * *||
 A4 z2 d2 | d4 d2 c2 | B2 G2 A4 | G4 e4- | e4 d4 | c4 A4 | B8 | A2 e4 d2 | c2 A2 B4 | A2 d4 c2 | %201
w: ior Jo-|han- ne _|Bap- * tis-|ta non|_ sur-|re- *||xit ma- *|||
 d4 G4 | B4 c4 | A4 G4 | A8 | G4 z4 | z8 | z2 G2 B2 c2 | A2 G2 A4 | G2 d4 c2 | B2 G2 A4 | G8 | A8 | %213
w: ior ma-||||ior||Jo- han- *|ne Bap- tis-|ta A- *||||
 G8- | G8 |] %215
w: men|_|
V:4
 z8 | z8 | C,6 C,2 | C,4 C,4 | F,4 F,4 | D,8 | F,4 F,2 F,2 | G,4 G,2 G,2 | D,4 E,4 | D,8 | z4 F,4 | %11
w: ||Pro- phe-|ta- rum|ma- xi-|me|va- tum- que|prin- ceps e-|gre gi-|e|qui|
 F,4 F,2 F,2 | A,2 A,2 A,4 | G,4 D,2 F,2 | G,2 E,2 D,4 | E,2 C,2 G,4 | C,8 | z2 C,4 C,2 | %18
w: ma- tris in|* te- ro|ma- * *|||nens|fle- xis|
 E,3 D, E,3 F, | G,2 G,2 G,4 | z8 | G,3 G, G,2 G,2 | C,4 C,4 | G,4 A,2 G,2- | G,2 F,E, D,4 | C,8 | %26
w: gen- * * *|* i- bus||re- demp- to- rem|sa- lu-|ta- * *||sti|
 z8 | G,3 G, G,2 G,2 | C,4 C,4 | G,4 A,2 G,2- | G,E, F,2 D,4 | C,8 | C4 z4 | z8 | z4 A,4 | %35
w: |re- demp- to- rem|sa- lu-|tas- * *||sti|_||pa-|
 A,4 A,4 | D,4 D,4 | G,6 G,2 | G,4 C,2 F,2- | F,2 G,2 D,4 | G,4 z4 | C4 C2 C2 | C4 C4 | %43
w: ter- ne|vo- cis|or- ga-|na per- emp-||ta.|No- vum sol-|vun- tur|
 G,3 A, B,2 C2- | C2 B,2 A,2 A,2 | G,8 | z2 G,2- G,A, B,2 | C3 B, A,2 G,2 | F,4 E,4 | A,8 | D,8 | %51
w: in _ _ can-|* * * ti-|cum|in _ _ _|can- * * *|ti- cum|lu-|ce-|
 G,3 A, G,2 F,2 | E,4 D,4 | G,4 B,4 | A,8 | D,4 z4 | z4 A,4 | D,3 E, F,2 G,2 | E,4 C,4 | D,8 | %60
w: que _ _ fru-||ens lu-|ce-|que|di-|* gi- to ter-|ra- rum|or-|
 C,4 z2 C2- | C2 B,A, B,4 | C3 C, C,2 C2 | D4 B,4 | A,4 C4- | CB,A,G, A,4 | G,2 B,2 A,4 | %67
w: bis de-|* mon- * stra-|sti sa- lu- *||tem _|_ _ _ _ di-|* * cens,|
 z2 D,2 E,2 F,2 | G,2 C,2 D,4 | E,2 C,2 G,4 | C,4 C4- | C4 D4 | A,8 | B,6 G,2 | G,8- | G,4 A,4 | %76
w: de- mon- stras-|ti sa- lu-|tem di- *|cens: Ec-|* ce|a-|gnus _|De-||
 E,8 | z4 A,4 | D,4 A,4 | F,4 D,4 | A,8 | E,8 | z4 E,4 | C,4 A,,4 | E,8 | F,3 G, A,2 D,2 | %86
w: i|Ec-|ce qui|tol- *||lit|cri-|mi- *|na|mun- * * *|
 G,4 E,4 | D,8 | G,8 || z8 | z8 | z8 | G,8 | B,6 C2 | D8 | D4 z4 | z4 D,4 | F,6 G,2 | A,8 | %99
w: ||di.||||Con-|ce- de|no-|bis|con-|ce- de|no-|
 A,4 z4 | A,4 A,4 | B,4 B,4 | A,6 D2 | B,2 A,G, A,4 | G,8 | C,8 | G,6 B,2 | C2 A,2 G,4 | z8 | %109
w: bis|tu- as|dig- ne|con- ci-|ne- * * re|lau-|||* * des||
 C4 C2 C2 | C4 C2 C2 | C4 C4 | B,4 B,4 | A,4 A,4 | B,4 C4 | A,8 | G,8 | C,3 D, E,2 C,2 | G,4 z4 | %119
w: vi- as- que|tu- as et|vo- cem|in de-|ser- to|cla- *|man-|||tem|
 G,6 G,2 | G,2 G,2 E,2 E,2 | G,4 A,4 | G,2 G,4 F,2 | G,2 E,2 D,4 | z8 | A,4 G,4 | E,4 F,2 G,2- | %127
w: nos- tra|mo- du- la- ti-|o- ne|pro- se- *|* * qui.||Per _|e- um cu-|
 G,F,E,D, E,4 | D,4 z4 | z8 | z8 | z8 | z8 | z8 | G,4 G,4 | G,4 E,2 E,2 | G,8 | F,4 D,4 | %138
w: |jus||||||in- fer-|is- que fu-|i-|sti præ-|
 E,3 D, E,2 F,2- | F,2 G,2 E,4 | D,8- | D,8 | E,6 C,2 | C,4 z4 | C6 C2 | C4 A,4 | C4 D4 | %147
w: cur- * * *||sor,|_|præ- cur-|sor.|Po- su-|it os|me- *|
 C2 C4 B,2 | C4 z2 C2- | CB,A,G, A,4 | G,4 C,2 D,2 | E,2 F,2 D,4 | C,4 z2 C,2 | F,2 F,2 F,2 D,2 | %154
w: um Do- mi-|nus qua-|* * * * si|gla- * di-|um a- cu-|tum, sub|um- bra ma- nus|
 F,3 G, A,G,A,B, | C3 B, A,G, A,2 | G,2 D,2 E,2 F,2 | G,2 C,2 D,4 ||[M:3/2] C,8 C,4 | C,8 C4 | %160
w: su- * * * * *||* * æ pro-|te- * xit|me. E-|li- sa-|
 A,8 A,4 | F,6 G,2 A,4 | G,8 z4 | G,8 G,4 | F,6 G,2 A,4 | G,8 F,4 | G,4 D,8 | G,8 G,4 | A,8 G,4 | %169
w: beth Za-|cha- * ri-|e|mag- num|vi- * rum|ge- nu-|it Jo-|han- nem|Bap- *|
 E,4 F,8 | C,8 z4 | G,8 G,4 | E,8 D,4 | C,4 G,4 G,4 | C,12 ||[M:2/2] G,4 A,4 | C4 B,2 C2- | %177
w: tis- *|tam|præ- cur-|so- rem|Do- * mi-|ni.|In- ter|na- tos mu-|
"^* In MSS 167 the bass switches to    at. m. 181 and back to    at m. 186. This section is too short by one minim in MSS 167, and so the last minim in m. 183 has been changed to a semibreve." C2 B,A, B,4 | %178
w: * li- * e-|
"^" A,8- | A,8 |"^*" z2 D,3 E,F,G, | A,B,CA, B,A,G,F, | G,D, F,2 E,4 | %183
w: rum|_|mu- li- * *|e- * * * * * * *||
"^* MSS 165: C" D,4 G,2 F,2 | E,4 D,4 | G,8 | z8 | z8 | A,4 A,4 | A,6 G,2 | F,2 D,2 E,4 | D,8 | %192
w: ||rum|||non sur-|re- *|xit ma- *|ior|
 z8 | z4 D,4 | E,4 C,3 D, | E,3 F, G,4 | A,4 F,4 | E,8 | z8 | z2 A,4 G,2 | F,2 D,2 E,4 | D,4 G,4- | %202
w: |non|sur- re- *|xit _ ma-|ior _|_||Jo- *|han- * *|ne Bap-|
 G,4 C,4 | D,4 E,4 | D,8 | z2 G,2 B,2 C2 | A,2 G,2 A,4 | G,6 C,2 | D,2 E,2 D,4 | z2 G,4 A,2 | %210
w: |tis- *|ta|Jo- han- *||ne Bap-|tis- * ta|A- *|
 D,2 E,2 D,4 | E,8 | D,8 | G,8- | G,8 |] %215
w: |||men|_|

